X: 11088
T: Duck, The
R: jig
M: 6/8
K: Dmajor
|:A2d def|{ef} e2d def|{ef}e2d def|{ef}e2d eff|
A2d def|{ef}e2d def|{ef}e2d fed|{Bc}B2A Bcd:|
|:A2a {fg}f2e|fdd d<de|fdd d<de|fdd faa|A2a {fg}f2e|
fdd d<de|1 f2e fed|{Bc}B2A Bcd:|2 faf fed|{Bc}B2A Bcd||

